Lila_HD/apps/scalable/FoxitReader.svg

<?xml version="1.0" encoding="UTF-8" standalone="no"?>
<!-- Created with Inkscape (http://www.inkscape.org/) -->

<svg
   xmlns:dc="http://purl.org/dc/elements/1.1/"
   xmlns:cc="http://creativecommons.org/ns#"
   xmlns:rdf="http://www.w3.org/1999/02/22-rdf-syntax-ns#"
   xmlns:svg="http://www.w3.org/2000/svg"
   xmlns="http://www.w3.org/2000/svg"
   xmlns:xlink="http://www.w3.org/1999/xlink"
   xmlns:sodipodi="http://sodipodi.sourceforge.net/DTD/sodipodi-0.dtd"
   xmlns:inkscape="http://www.inkscape.org/namespaces/inkscape"
   id="svg3143"
   height="96"
   width="96"
   version="1.1"
   sodipodi:docname="FoxitReader.svg"
   inkscape:version="0.92.2 2405546, 2018-03-11">
  <sodipodi:namedview
     pagecolor="#ffffff"
     bordercolor="#666666"
     borderopacity="1"
     objecttolerance="10"
     gridtolerance="10"
     guidetolerance="10"
     inkscape:pageopacity="0"
     inkscape:pageshadow="2"
     inkscape:window-width="1920"
     inkscape:window-height="994"
     id="namedview37"
     showgrid="false"
     inkscape:zoom="7.7395833"
     inkscape:cx="48"
     inkscape:cy="53.555225"
     inkscape:window-x="0"
     inkscape:window-y="21"
     inkscape:window-maximized="1"
     inkscape:current-layer="g873" />
  <defs
     id="defs3145">
    <radialGradient
       id="radialGradient3013"
       gradientUnits="userSpaceOnUse"
       cy="43.5"
       cx="4.993"
       gradientTransform="matrix(2.003784,0,0,1.4,27.98813,-17.4)"
       r="2.5">
      <stop
         id="stop2883"
         stop-color="#181818"
         offset="0" />
      <stop
         id="stop2885"
         stop-color="#181818"
         stop-opacity="0"
         offset="1" />
    </radialGradient>
    <radialGradient
       id="radialGradient3015"
       gradientUnits="userSpaceOnUse"
       cy="43.5"
       cx="4.993"
       gradientTransform="matrix(2.003784,0,0,1.4,-20.01187,-104.4)"
       r="2.5">
      <stop
         id="stop2889"
         stop-color="#181818"
         offset="0" />
      <stop
         id="stop2891"
         stop-color="#181818"
         stop-opacity="0"
         offset="1" />
    </radialGradient>
    <linearGradient
       id="linearGradient3141"
       y2="39.999001"
       gradientUnits="userSpaceOnUse"
       y1="47.028"
       x2="25.058001"
       x1="25.058001">
      <stop
         id="stop2895"
         stop-color="#181818"
         stop-opacity="0"
         offset="0" />
      <stop
         id="stop2897"
         stop-color="#181818"
         offset="0.5" />
      <stop
         id="stop2899"
         stop-color="#181818"
         stop-opacity="0"
         offset="1" />
    </linearGradient>
    <radialGradient
       id="radialGradient4031"
       gradientUnits="userSpaceOnUse"
       cy="31.427"
       cx="64"
       gradientTransform="matrix(-0.04027802,1.5997384,-1.2165371,-0.03009837,103.15367,-69.513718)"
       r="33.942001">
      <stop
         id="stop38"
         stop-color="#fafafa"
         offset="0" />
      <stop
         id="stop40"
         stop-color="#e0e0e0"
         offset="1" />
    </radialGradient>
    <linearGradient
       id="linearGradient3106"
       x1="24"
       gradientUnits="userSpaceOnUse"
       y1="5"
       gradientTransform="translate(5.3e-6,49.000002)"
       x2="24"
       y2="43">
      <stop
         id="stop3926-7"
         stop-color="#FFF"
         offset="0" />
      <stop
         id="stop3928-3"
         stop-color="#FFF"
         stop-opacity="0.23529412"
         offset="0.063165" />
      <stop
         id="stop3930-7"
         stop-color="#FFF"
         stop-opacity="0.15686275"
         offset="0.95056" />
      <stop
         id="stop3932-1"
         stop-color="#FFF"
         stop-opacity="0.39215687"
         offset="1" />
    </linearGradient>
    <radialGradient
       id="radialGradient3115"
       gradientUnits="userSpaceOnUse"
       cy="9.9443998"
       cx="9.4048004"
       gradientTransform="matrix(0.01605049,3.939175,-8.1858086,0.03335375,105.73127,13.867247)"
       r="12.672">
      <stop
         id="stop3891"
         stop-color="#ff9c44"
         offset="0" />
      <stop
         id="stop3893"
         stop-color="#ff7e0c"
         offset="0.71084" />
      <stop
         id="stop3895"
         stop-color="#cb5f00"
         offset="1" />
    </radialGradient>
    <linearGradient
       y2="47.000011"
       x2="90"
       y1="47.000011"
       x1="6"
       gradientTransform="matrix(1.1059895,0,0,1.1071426,-5.2385469,-3.3706609)"
       gradientUnits="userSpaceOnUse"
       id="linearGradient4071"
       xlink:href="#linearGradient6139-0"
       inkscape:collect="always" />
    <linearGradient
       id="linearGradient6139-0">
      <stop
         style="stop-color:#b2babc;stop-opacity:1"
         offset="0"
         id="stop6141-2" />
      <stop
         id="stop6151-0"
         offset="0.25"
         style="stop-color:#ffffff;stop-opacity:1;" />
      <stop
         id="stop6147-1"
         offset="0.5"
         style="stop-color:#96a1a4;stop-opacity:1" />
      <stop
         style="stop-color:#fbf9f9;stop-opacity:1;"
         offset="0.75"
         id="stop6149-4" />
      <stop
         style="stop-color:#b2b9bc;stop-opacity:1"
         offset="1"
         id="stop6143-4" />
    </linearGradient>
    <linearGradient
       gradientUnits="userSpaceOnUse"
       y2="88.171875"
       x2="94.5"
       y1="88.171875"
       x1="1.5"
       id="linearGradient4129"
       xlink:href="#linearGradient3832-0-6-1-1"
       inkscape:collect="always"
       gradientTransform="matrix(0.99895835,0,0,0.99999997,-0.10104801,0.66505199)" />
    <linearGradient
       id="linearGradient3832-0-6-1-1">
      <stop
         id="stop3834-6-3-7-1"
         offset="0"
         style="stop-color:#000000;stop-opacity:1;" />
      <stop
         style="stop-color:#000000;stop-opacity:0.58823532;"
         offset="0.1"
         id="stop3872-2-4" />
      <stop
         id="stop3844-6-2-7-6"
         offset="0.89999998"
         style="stop-color:#000000;stop-opacity:0.58823532;" />
      <stop
         id="stop3836-5-0-2-9"
         offset="1"
         style="stop-color:#000000;stop-opacity:1;" />
    </linearGradient>
    <radialGradient
       r="43.199203"
       fy="44.892841"
       fx="13.948145"
       cy="44.892841"
       cx="13.948145"
       gradientTransform="matrix(0.97411799,0,0,0.04919072,33.762335,80.831749)"
       gradientUnits="userSpaceOnUse"
       id="radialGradient7462"
       xlink:href="#linearGradient3737"
       inkscape:collect="always" />
    <linearGradient
       id="linearGradient3737">
      <stop
         id="stop3739"
         style="stop-color:#ffffff;stop-opacity:1"
         offset="0" />
      <stop
         id="stop3741"
         style="stop-color:#ffffff;stop-opacity:0"
         offset="1" />
    </linearGradient>
    <radialGradient
       r="43.199203"
       fy="44.892841"
       fx="13.948145"
       cy="44.892841"
       cx="13.948145"
       gradientTransform="matrix(0.88832662,0,0,0.04913948,32.209544,-89.973331)"
       gradientUnits="userSpaceOnUse"
       id="radialGradient7464"
       xlink:href="#linearGradient3737"
       inkscape:collect="always" />
    <linearGradient
       y2="14.514202"
       x2="50.527882"
       y1="-28.64156"
       x1="2.7713892"
       gradientUnits="userSpaceOnUse"
       id="linearGradient4767"
       xlink:href="#linearGradient3737"
       inkscape:collect="always"
       gradientTransform="matrix(1.0041884,0,0,1.0052356,-0.21820995,-0.04755458)" />
    <clipPath
       clipPathUnits="userSpaceOnUse"
       id="clipPath4156-4-1">
      <path
         style="opacity:0.6;fill:#ffffff;fill-opacity:1;stroke:none"
         d="m 27.046336,-55.695463 -14.21366,13.321486 h 0.06127 l 15.653407,21.770763 10.231384,-10.546177 C 38.561832,-32.30156 27.468089,-54.819245 27.046336,-55.695463 Z M 9.6468554,-39.382809 -5.2407289,-25.32124 15.987863,-7.8059573 26.372412,-18.382966 Z m 31.4906096,12.951445 -9.741259,9.713584 8.944804,12.4580526 7.780753,-7.5550056 z m -49.8397109,4.378822 -13.7541661,12.9822847 26.2830181,13.84571 0.06127,-0.0617 -0.122531,-0.0617 L 13.598503,-5.4007374 -8.7022409,-22.052595 Z m 38.0154159,7.400825 -9.802525,9.7752596 11.579232,9.5594001 7.62759,-7.40083 -8.669108,-11.0087257 z m 20.187073,5.6739697 -7.382526,7.2158 6.187844,8.54179 5.820249,-6.13651996 z m -32.195166,6.32154 -9.5574606,9.49772 13.6622686,7.1849703 7.933918,-7.6783603 z m 23.311629,2.37443004 -7.10683,6.93826996 8.362778,6.9074403 5.360756,-5.6739699 -0.06127,-0.0925 -0.0919,0.12335 -6.463539,-8.20258036 z m -8.730374,8.54178036 -7.505057,7.3391599 10.353916,5.45811 c 1.397496,-1.32103 5.67514,-6.12292 5.850882,-6.32154 z"
         id="path4158-0-8"
         inkscape:connector-curvature="0" />
    </clipPath>
    <radialGradient
       id="radialGradient4031-3"
       gradientUnits="userSpaceOnUse"
       cy="31.427"
       cx="64"
       gradientTransform="matrix(-0.09952533,3.9528881,-3.0060134,-0.07437184,147.50165,-236.01714)"
       r="33.942001">
      <stop
         id="stop38-6"
         stop-color="#fafafa"
         offset="0" />
      <stop
         id="stop40-7"
         stop-color="#e0e0e0"
         offset="1" />
    </radialGradient>
  </defs>
  <metadata
     id="metadata3148">
    <rdf:RDF>
      <cc:Work
         rdf:about="">
        <dc:format>image/svg+xml</dc:format>
        <dc:type
           rdf:resource="http://purl.org/dc/dcmitype/StillImage" />
        <dc:title></dc:title>
      </cc:Work>
    </rdf:RDF>
  </metadata>
  <g
     style="display:inline"
     id="g873"
     transform="translate(0.10104505,-0.665026)">
    <path
       style="display:inline;opacity:0.15;fill:#000000;fill-opacity:1;fill-rule:nonzero;stroke:none;stroke-width:0.99947876"
       d="M 88.827522,0.915026 H 6.9703768 c -3.7790623,0 -6.8214209,3.0423565 -6.8214209,6.8214257 V 89.593598 c 0,3.779071 3.0423586,6.821428 6.8214209,6.821428 H 88.827522 c 3.779072,0 6.821432,-3.042357 6.821432,-6.821428 V 7.7364517 c 0,-3.7790692 -3.04236,-6.8214257 -6.821432,-6.8214257 z"
       id="path3288"
       inkscape:connector-curvature="0" />
    <path
       inkscape:connector-curvature="0"
       id="path4085"
       d="M 88.188015,1.6611196 H 7.6098844 c -3.7200154,0 -6.71483658,2.9948194 -6.71483658,6.7148408 V 88.954089 c 0,3.720023 2.99482118,6.714843 6.71483658,6.714843 H 88.188015 c 3.720024,0 6.714845,-2.99482 6.714845,-6.714843 V 8.3759604 c 0,-3.7200214 -2.994821,-6.7148408 -6.714845,-6.7148408 z"
       style="display:inline;opacity:0.15;fill:#000000;fill-opacity:1;fill-rule:nonzero;stroke:none;stroke-width:0.99947876" />
    <path
       style="display:inline;fill:url(#linearGradient4071);fill-opacity:1;fill-rule:nonzero;stroke:none;stroke-width:0.99947876"
       d="M 87.5485,2.4072135 H 8.2494003 c -3.6609756,0 -6.6082583,2.9472821 -6.6082583,6.6082567 V 88.314581 c 0,3.660975 2.9472827,6.608259 6.6082583,6.608259 H 87.5485 c 3.660978,0 6.608258,-2.947284 6.608258,-6.608259 V 9.0154702 c 0,-3.6609746 -2.94728,-6.6082567 -6.608258,-6.6082567 z"
       id="rect4251-1"
       inkscape:connector-curvature="0" />
    <rect
       ry="3.5"
       rx="3.4963541"
       y="7.1843128"
       x="5.8397818"
       height="77.021454"
       width="84.557999"
       id="rect862"
       style="opacity:1;fill:#ff8519;fill-opacity:1;stroke:none;stroke-width:0.71123183;stroke-miterlimit:4;stroke-dasharray:none;stroke-opacity:1" />
    <path
       id="path3977"
       d="M 71.052476,36.106247 C 31.9026,13.845378 22.157139,84.522216 62.666041,63.094059 c 4.981207,-2.63503 -10.83046,1.63711 -13.939667,-7.12501 9.758805,0.507388 15.396545,-3.675551 16.444726,-13.818343 1.27069,2.087145 1.677436,4.174191 4.247331,6.26141 0.608721,-2.44699 1.241756,-4.893981 0.435605,-7.340972 6.793408,3.742514 6.267835,16.781517 -1.428065,27.192903 C 57.411918,83.162447 18.574372,85.381862 17.914626,50.037512 17.415295,23.262202 67.526541,-6.0285451 81.504756,37.401276 74.896424,29.181878 66.7771,22.122101 57.001492,23.582933 c 7.282163,2.998508 12.736805,6.940182 14.048389,12.52282 z"
       inkscape:connector-curvature="0"
       style="fill:#fffaea;stroke-width:2.47095895;fill-opacity:1" />
    <path
       inkscape:connector-curvature="0"
       id="path4989"
       d="m 9.9228616,5.6198544 c -3.1003887,0 -5.6384442,2.5262833 -5.6384442,5.6165966 v 68.917174 c 0,3.090315 2.5380555,5.616599 5.6384442,5.616599 H 86.314686 c 3.100391,0 5.638448,-2.526284 5.638448,-5.616599 V 11.236451 c 0,-3.0903123 -2.538057,-5.6165966 -5.638448,-5.6165966 z m 0,2.3073585 H 86.314686 c 1.878266,0 3.334565,1.4723861 3.334565,3.3092381 v 68.917174 c 0,1.836856 -1.456299,3.309239 -3.334565,3.309239 H 9.9228616 c -1.8782653,0 -3.3345636,-1.472383 -3.3345636,-3.309239 V 11.236451 c 0,-1.836852 1.4562983,-3.3092381 3.3345636,-3.3092381 z"
       style="color:#000000;font-style:normal;font-variant:normal;font-weight:normal;font-stretch:normal;font-size:medium;line-height:normal;font-family:Sans;-inkscape-font-specification:Sans;text-indent:0;text-align:start;text-decoration:none;text-decoration-line:none;letter-spacing:normal;word-spacing:normal;text-transform:none;writing-mode:lr-tb;direction:ltr;baseline-shift:baseline;text-anchor:start;display:inline;overflow:visible;visibility:visible;fill:#202223;fill-opacity:0.93689324;stroke:none;stroke-width:2.37426257;marker:none;enable-background:accumulate" />
    <path
       inkscape:connector-curvature="0"
       style="display:inline;opacity:0.65818182;fill:url(#linearGradient4129);fill-opacity:1;fill-rule:nonzero;stroke:none;stroke-width:0.99947876"
       d="m 1.641141,82.332506 v 5.96875 c 0,3.660975 2.9606059,6.621583 6.6215813,6.621583 H 87.53518 c 3.660978,0 6.621588,-2.960608 6.621588,-6.621583 v -5.96875 c 0,3.660975 -2.96061,6.621583 -6.621588,6.621583 H 8.2627223 c -3.6609754,0 -6.6215813,-2.960608 -6.6215813,-6.621583 z"
       id="path4118" />
    <rect
       style="opacity:0.55;fill:url(#radialGradient7462);fill-opacity:1;stroke:none;stroke-width:0.99947876"
       id="rect4131"
       width="83.811203"
       height="4.2278652"
       x="5.4959588"
       y="80.747047"
       rx="4.25"
       ry="4.25" />
    <rect
       ry="4.245573"
       rx="4.245573"
       y="-89.764748"
       x="6.4460635"
       height="4.2278652"
       width="76.350258"
       id="rect4141"
       style="opacity:0.669;fill:url(#radialGradient7464);fill-opacity:1;stroke:none;stroke-width:0.99947876"
       transform="rotate(90)" />
    <rect
       transform="matrix(1.0636761,0,0,1.0422264,4.4218092,39.193603)"
       style="opacity:0.65;fill:url(#linearGradient4767);fill-opacity:1;stroke:none;stroke-width:1.00471163"
       id="rect4146"
       width="75.965775"
       height="69.024437"
       x="2"
       y="-30"
       rx="3.973561"
       ry="3.9777055"
       clip-path="url(#clipPath4156-4-1)" />
  </g>
</svg>

<?xml version="1.0" encoding="UTF-8"?>
<!-- Created with Inkscape (http://www.inkscape.org/) -->
<svg version="1.1" viewBox="0 0 96 96" xmlns="http://www.w3.org/2000/svg" xmlns:cc="http://creativecommons.org/ns#" xmlns:dc="http://purl.org/dc/elements/1.1/" xmlns:rdf="http://www.w3.org/1999/02/22-rdf-syntax-ns#" xmlns:xlink="http://www.w3.org/1999/xlink">
<defs>
<linearGradient id="linearGradient4071" x1="6" x2="90" y1="47" y2="47" gradientTransform="matrix(1.106 0 0 1.1071 -5.2385 -3.3707)" gradientUnits="userSpaceOnUse">
<stop stop-color="#b2babc" offset="0"/>
<stop stop-color="#fff" offset=".25"/>
<stop stop-color="#96a1a4" offset=".5"/>
<stop stop-color="#fbf9f9" offset=".75"/>
<stop stop-color="#b2b9bc" offset="1"/>
</linearGradient>
<linearGradient id="linearGradient4129" x1="1.5" x2="94.5" y1="88.172" y2="88.172" gradientTransform="matrix(.99896 0 0 1 -.10105 .66505)" gradientUnits="userSpaceOnUse">
<stop offset="0"/>
<stop stop-opacity=".58824" offset=".1"/>
<stop stop-opacity=".58824" offset=".9"/>
<stop offset="1"/>
</linearGradient>
<radialGradient id="radialGradient7462" cx="13.948" cy="44.893" r="43.199" gradientTransform="matrix(.97412 0 0 .049191 33.762 80.832)" gradientUnits="userSpaceOnUse" xlink:href="#linearGradient3737"/>
<linearGradient id="linearGradient3737">
<stop stop-color="#fff" offset="0"/>
<stop stop-color="#fff" stop-opacity="0" offset="1"/>
</linearGradient>
<radialGradient id="radialGradient7464" cx="13.948" cy="44.893" r="43.199" gradientTransform="matrix(.88833 0 0 .049139 32.21 -89.973)" gradientUnits="userSpaceOnUse" xlink:href="#linearGradient3737"/>
<linearGradient id="linearGradient4767" x1="2.7714" x2="50.528" y1="-28.642" y2="14.514" gradientTransform="matrix(1.0042 0 0 1.0052 -.21821 -.047555)" gradientUnits="userSpaceOnUse" xlink:href="#linearGradient3737"/>
<clipPath id="clipPath4156-4-1">
<path d="m27.046-55.695-14.214 13.321h0.06127l15.653 21.771 10.231-10.546c-0.2169-1.1522-11.311-23.67-11.732-24.546zm-17.399 16.313-14.888 14.062 21.229 17.515 10.385-10.577zm31.491 12.951-9.7413 9.7136 8.9448 12.458 7.7808-7.555zm-49.84 4.3788-13.754 12.982 26.283 13.846 0.06127-0.0617-0.12253-0.0617 9.8332-10.053-22.301-16.652zm38.015 7.4008-9.8025 9.7753 11.579 9.5594 7.6276-7.4008-8.6691-11.009zm20.187 5.674-7.3825 7.2158 6.1878 8.5418 5.8202-6.1365zm-32.195 6.3215-9.5575 9.4977 13.662 7.185 7.9339-7.6784zm23.312 2.3744-7.1068 6.9383 8.3628 6.9074 5.3608-5.674-0.06127-0.0925-0.0919 0.12335-6.4635-8.2026zm-8.7304 8.5418-7.5051 7.3392 10.354 5.4581c1.3975-1.321 5.6751-6.1229 5.8509-6.3215z" fill="#fff" opacity=".6"/>
</clipPath>
</defs>
<metadata>
<rdf:RDF>
<cc:Work rdf:about="">
<dc:format>image/svg+xml</dc:format>
<dc:type rdf:resource="http://purl.org/dc/dcmitype/StillImage"/>
<dc:title/>
</cc:Work>
</rdf:RDF>
</metadata>
<g transform="translate(.10105 -.66503)">
<path d="m88.828 0.91503h-81.857c-3.7791 0-6.8214 3.0424-6.8214 6.8214v81.857c0 3.7791 3.0424 6.8214 6.8214 6.8214h81.857c3.7791 0 6.8214-3.0424 6.8214-6.8214v-81.857c0-3.7791-3.0424-6.8214-6.8214-6.8214z" opacity=".15"/>
<path d="m88.188 1.6611h-80.578c-3.72 0-6.7148 2.9948-6.7148 6.7148v80.578c0 3.72 2.9948 6.7148 6.7148 6.7148h80.578c3.72 0 6.7148-2.9948 6.7148-6.7148v-80.578c0-3.72-2.9948-6.7148-6.7148-6.7148z" opacity=".15"/>
<path d="m87.548 2.4072h-79.299c-3.661 0-6.6083 2.9473-6.6083 6.6083v79.299c0 3.661 2.9473 6.6083 6.6083 6.6083h79.299c3.661 0 6.6083-2.9473 6.6083-6.6083v-79.299c0-3.661-2.9473-6.6083-6.6083-6.6083z" fill="url(#linearGradient4071)"/>
<rect x="5.8398" y="7.1843" width="84.558" height="77.021" rx="3.4964" ry="3.5" fill="#ff8519"/>
<path d="m71.052 36.106c-39.15-22.261-48.895 48.416-8.3864 26.988 4.9812-2.635-10.83 1.6371-13.94-7.125 9.7588 0.50739 15.397-3.6756 16.445-13.818 1.2707 2.0871 1.6774 4.1742 4.2473 6.2614 0.60872-2.447 1.2418-4.894 0.4356-7.341 6.7934 3.7425 6.2678 16.782-1.4281 27.193-11.014 14.898-49.852 17.118-50.511-18.227-0.49933-26.775 49.612-56.066 63.59-12.636-6.6083-8.2194-14.728-15.279-24.503-13.818 7.2822 2.9985 12.737 6.9402 14.048 12.523z" fill="#fffaea" stroke-width="2.471"/>
<path d="m9.9229 5.6199c-3.1004 0-5.6384 2.5263-5.6384 5.6166v68.917c0 3.0903 2.5381 5.6166 5.6384 5.6166h76.392c3.1004 0 5.6384-2.5263 5.6384-5.6166v-68.917c0-3.0903-2.5381-5.6166-5.6384-5.6166zm0 2.3074h76.392c1.8783 0 3.3346 1.4724 3.3346 3.3092v68.917c0 1.8369-1.4563 3.3092-3.3346 3.3092h-76.392c-1.8783 0-3.3346-1.4724-3.3346-3.3092v-68.917c0-1.8369 1.4563-3.3092 3.3346-3.3092z" color="#000000" fill="#202223" fill-opacity=".93689" style="text-decoration-line:none;text-indent:0;text-transform:none"/>
<path d="m1.6411 82.333v5.9688c0 3.661 2.9606 6.6216 6.6216 6.6216h79.272c3.661 0 6.6216-2.9606 6.6216-6.6216v-5.9688c0 3.661-2.9606 6.6216-6.6216 6.6216h-79.272c-3.661 0-6.6216-2.9606-6.6216-6.6216z" fill="url(#linearGradient4129)" opacity=".65818"/>
<rect x="5.496" y="80.747" width="83.811" height="4.2279" rx="4.25" ry="4.25" fill="url(#radialGradient7462)" opacity=".55"/>
<rect transform="rotate(90)" x="6.4461" y="-89.765" width="76.35" height="4.2279" rx="4.2456" ry="4.2456" fill="url(#radialGradient7464)" opacity=".669"/>
<rect transform="matrix(1.0637 0 0 1.0422 4.4218 39.194)" x="2" y="-30" width="75.966" height="69.024" rx="3.9736" ry="3.9777" clip-path="url(#clipPath4156-4-1)" fill="url(#linearGradient4767)" opacity=".65"/>
</g>
</svg>
